Numix/scalable/actions/call-stop-symbolic.svg

<?xml version="1.0" encoding="UTF-8" standalone="no"?>
<svg
   xmlns:dc="http://purl.org/dc/elements/1.1/"
   xmlns:cc="http://creativecommons.org/ns#"
   xmlns:rdf="http://www.w3.org/1999/02/22-rdf-syntax-ns#"
   xmlns:svg="http://www.w3.org/2000/svg"
   xmlns="http://www.w3.org/2000/svg"
   xmlns:sodipodi="http://sodipodi.sourceforge.net/DTD/sodipodi-0.dtd"
   xmlns:inkscape="http://www.inkscape.org/namespaces/inkscape"
   viewBox="0 0 16 16"
   id="svg2158"
   version="1.1"
   inkscape:version="0.91 r"
   sodipodi:docname="call-stop-symbolic.svg">
  <metadata
     id="metadata2168">
    <rdf:RDF>
      <cc:Work
         rdf:about="">
        <dc:format>image/svg+xml</dc:format>
        <dc:type
           rdf:resource="http://purl.org/dc/dcmitype/StillImage" />
        <dc:title />
      </cc:Work>
    </rdf:RDF>
  </metadata>
  <defs
     id="defs2166" />
  <sodipodi:namedview
     pagecolor="#ffffff"
     bordercolor="#666666"
     borderopacity="1"
     objecttolerance="10"
     gridtolerance="10"
     guidetolerance="10"
     inkscape:pageopacity="0"
     inkscape:pageshadow="2"
     inkscape:window-width="929"
     inkscape:window-height="480"
     id="namedview2164"
     showgrid="false"
     inkscape:zoom="14.75"
     inkscape:cx="8"
     inkscape:cy="8"
     inkscape:window-x="10"
     inkscape:window-y="34"
     inkscape:window-maximized="0"
     inkscape:current-layer="svg2158" />
  <path
     inkscape:connector-curvature="0"
     id="path2162"
     d="M 12.300665,2.00133 C 11.529368,2.04443 10.967545,2.68598 10.48456,3.22355 10.017832,3.82544 9.542052,4.4827 9.410693,5.24911 9.410036,5.47818 9.694809,5.58949 9.819106,5.76759 10.289888,6.19101 10.774657,6.83511 10.475363,7.49392 10.053617,8.33096 9.257341,8.88613 8.6429,9.5728 8.145244,10.07227 7.508143,10.7516 6.7311,10.46364 6.154794,10.24479 5.815617,9.7131 5.36629,9.35074 4.744606,9.39884 4.19613,9.7848 3.676078,10.10342 c -0.666446,0.4833 -1.356714,1.077 -1.598477,1.89323 -0.142145,0.64969 0.540252,0.99854 0.962245,1.34049 1.054218,0.76368 2.470373,0.86461 3.675217,0.42739 1.940489,-0.68924 3.504203,-2.12348 4.881283,-3.60911 1.176996,-1.33851 2.300863,-2.90797 2.451736,-4.7397 C 14.151431,4.12754 13.494957,2.85038 12.50239,2.05897 l -0.09981,-0.0394 -0.101903,-0.0182 z"
     style="fill:#ef555c;fill-opacity:1" />
</svg>

<svg xmlns="http://www.w3.org/2000/svg" viewBox="0 0 16 16">
 <path d="m 12.301 2 c -0.771 0.043 -1.333 0.685 -1.816 1.222 -0.467 0.602 -0.943 1.259 -1.074 2.026 -0.001 0.229 0.284 0.34 0.408 0.518 0.471 0.423 0.956 1.068 0.656 1.726 -0.422 0.837 -1.218 1.392 -1.832 2.079 -0.498 0.499 -1.135 1.179 -1.912 0.891 -0.576 -0.219 -0.915 -0.751 -1.365 -1.113 -0.622 0.048 -1.17 0.434 -1.69 0.753 c -0.666 0.483 -1.357 1.077 -1.598 1.893 -0.142 0.65 0.54 0.999 0.962 1.34 1.054 0.764 2.47 0.865 3.675 0.427 1.94 -0.689 3.504 -2.123 4.881 -3.609 1.177 -1.339 2.301 -2.908 2.452 -4.74 c 0.103 -1.288 -0.553 -2.565 -1.546 -3.357 l -0.1 -0.039 -0.102 -0.018 z" style="fill:#ef555c;fill-opacity:1"/>
</svg>
